X: 29825
T: O'Connor's
R: polka
M: 2/4
K: Gmajor
DG AB|DG AB|GE ED/E/|GE EG|
DG AB|DG AB|GE F'G|AG G2||
dB BA/B/|dB BA|GE ED/E/|GE EA|
dB BA/B/|dB BA|GE F'G|AG G2||

